!!!OTL: 973b. Ringeltanz.
!!!ARE: Europa, Mitteleuropa, Deutschland, Oderberg, Hohen - Saathen
!!!SCT: E0973B
!!!TXL: @@DE
!!!YEM: Copyright 1995, estate of Helmut Schaffrath.
**kern	**text
*ICvox	*
*M3/8	*
*k[f#c#g#]	*
*A:	*
=1	=1
!LO:TX:a:t=Sehr rasch.	!
!LO:TX:a:t=Schluß.	!
{8a	Schar-
8a	-ret
8a	das
=2	=2
8b	Feu-
8a	-er
8g#	ʒu
=3	=3
8a	Koh-
8e	-len,
8r}	.
=4	=4
{8a	laſ-
8a	-ſet
8a	den
=5	=5
8b/	Schwarʒmann
8a	.
8g#	ſie
=6	=6
8a	ho-
8e	-len!
8e}	Sie
=7	=7
{8cc#	lie-
8cc#	-ßen
8cc#	ſich
=8	=8
8cc#	bei-
8cc#	-de
8cc#	ver-
=9	=9
8dd	-trau-
8dd;}	-en,
{8dd	der
=10	=10
4b	Mann
8b	mit
=11	=11
8b	ſei-
8b	-ner
16b	lie-
16b	-ben
=12	=12
8ee	Frau-
8ee	-en
8r}	.
=13	=13
{8a	Frei-
8a	-en
8a	iſt
=14	=14
8b	gar
8a	kei-
8g#	-ne
=15	=15
8a	Schan-
8e	-de,
8r}	.
=16	=16
{8a	es
8a	giebt
8a	ja
=17	=17
8b/	noch
8a	mehr
8g#	in
=18	=18
8a	dem
8e	Lan-
8e}	-de.
=19	=19
{8cc#	Und
8cc#	.
8cc#	wer
=20	=20
8cc#	nicht
8cc#	.
8cc#	will
=21	=21
8dd	frei-
8dd;}	-en,
{8dd	der
=22	=22
4b	kann
8b	es
=23	=23
8b	laſ-
8b	.
16b	-ſen
16b	.
=24	=24
8ee	blei-
8ee}	-ben.
{8e	Jch
=25	=25
8a	hof-
8a	-fe,
8a	es
=26	=26
8b/	wird
8a	ihm
8g#	ge-
=27	=27
8a	-reu-
8a	-en.
8r}	.
==	==
!!!AGN: Tanz - Lied, Reigen
!! Schluss - Strophe zu Lied E0973A
!!!ONB: ESAC (Essen Associative Code) Database: ERK2
!!!AMT: simple triple
!!!AIN: vox
!!!EED: Helmut Schaffrath
!!!EEV: 1.0
!!!GTL: Tanz- und Spiellieder.
!!!URL-scan: https://rosdok.uni-rostock.de/mcrviewer/recordIdentifier/rosdok_ppn745177662/iview2/phys_0743.iview2?x=-151.00528573090037&y=1921.44345161831&scale=0.5208463313777512&rotation=0&layout=singlePageLayout
!!!ENC: Anna Maria Matuszewska
!!!EEV: 2024/12/20
*-	*-
